site/static/docs/images/icons/reporting.svg

<svg fill="none" height="26" viewBox="0 0 26 26" width="26" xmlns="http://www.w3.org/2000/svg"><g fill="#0075ff"><circle cx="13" cy="13" opacity=".15" r="13"/><path clip-rule="evenodd" d="m6.5 6.75c0-.41421-.33579-.75-.75-.75s-.75.33579-.75.75v12.5c0 .4142.33579.75.75.75h14.5c.4142 0 .75-.3358.75-.75s-.3358-.75-.75-.75h-13.75zm14.2803 2.53033c.2929-.29289.2929-.76777 0-1.06066s-.7677-.29289-1.0606 0l-4.7197 4.71963-2.4697-2.4696c-.2929-.2929-.7677-.2929-1.0606 0l-3.25003 3.25c-.29289.2929-.29289.7677 0 1.0606s.76777.2929 1.06066 0l2.71967-2.7196 2.4697 2.4696c.1406.1407.3314.2197.5303.2197s.3897-.079.5303-.2197z" fill-rule="evenodd"/></g></svg>

<svg width="26" height="26" viewBox="0 0 26 26" fill="none" xmlns="http://www.w3.org/2000/svg">
<circle opacity="0.15" cx="13" cy="13" r="13" fill="#0075ff"/>
<path fill-rule="evenodd" clip-rule="evenodd" d="M6.5 6.75C6.5 6.33579 6.16421 6 5.75 6C5.33579 6 5 6.33579 5 6.75V19.25C5 19.6642 5.33579 20 5.75 20H20.25C20.6642 20 21 19.6642 21 19.25C21 18.8358 20.6642 18.5 20.25 18.5H6.5V6.75ZM20.7803 9.28033C21.0732 8.98744 21.0732 8.51256 20.7803 8.21967C20.4874 7.92678 20.0126 7.92678 19.7197 8.21967L15 12.9393L12.5303 10.4697C12.2374 10.1768 11.7626 10.1768 11.4697 10.4697L8.21967 13.7197C7.92678 14.0126 7.92678 14.4874 8.21967 14.7803C8.51256 15.0732 8.98744 15.0732 9.28033 14.7803L12 12.0607L14.4697 14.5303C14.6103 14.671 14.8011 14.75 15 14.75C15.1989 14.75 15.3897 14.671 15.5303 14.5303L20.7803 9.28033Z" fill="#0075ff"/>
</svg>
